X:13053
T:Muffin Man, The
T:Come, Let us Dance and Sing
R:Polka
C:Trad.
O:England
Z:Paul Hardy's Session Tunebook 2022 (see www.paulhardy.net). Creative Commons cc by-nc-sa licenced.
M:2/2
L:1/4
Q:1/2=110
K:G
"G"D G G>A|"Em"B G G>F|"Am"E A A>G|"D"F D D2|"G"D G G>A|"Em"B G G>F|"Am"E A "D"G F|"G"G2 G2:|
"G"d d d>c|"Em"B G G>F|"Am"E A A>G|"D"F D D2|"G"d d d>c|"Em"B G G>F|"Am"E A "D"G F|"G"G2 G2|
"D"A D D D|"G"B G G2|"Am"c A B G|"D"A F D2|"G"D G G>A|"Em"B G G>G|"Am"A A "D"F F|"G"G2 G2|]

